!!!OTL: Huagu diao
!!!ARE: Asia, China,ÿHenan, Kaifeng
!! IV, 152
!!!SCT: C1660
!!!YEM: Copyright 1995, estate of Helmut Schaffrath.
**kern
*ICvox
*Ivox
*M2/4
*k[f#c#g#]
*A:
{2ff#
=1
[2aa
=2
2aa]
=3
2cc#
=4
[2ff#
=5
2ff#]}
=6
{2aa
=7
4.ee
8gg#
=8
8ff#
8ee
8dd
8cc#
=9
4b
8b
8cc#
=10
4ee
8ee
8f#
=11
4.a
8b
=12
2a}
=13
{8ee
8cc#
4ee
=14
8r
8ee
8cc#
8ee
=15
4ff#
16gg#
16bb
16gg#
16ff#
=16
8ee
16ff#
16aa
16ff#
16ee
16dd
16cc#
=17
4b
8b
8cc#
=18
4ee
8ee
8f#
=19
4.a
8b
=20
2a}
=21
{4aa
8gg#
8ff#
=22
8ee
8cc#
8ee
8gg#
=23
4.ff#
8ee
=24
2ff#}
=25
{4aa
8gg#
8ff#
=26
8ee
8ff#
8aa
8ee
=27
4.ff#
8ee
=28
2ff#}
=29
{8ee
8cc#
4ee
=30
8r
8ee
8cc#
8ee
=31
4ff#
16gg#
16bb
16gg#
16ff#
=32
8ee
16ff#
16aa
16ff#
16ee
8cc#
=33
4b
8b
8cc#
=34
4ee
8ee
8f#
=35
4.a
8b
=36
2a}
=37
{4aa
8bb
8ccc#
=38
8.aa
16bb
8ff#
8ee
=39
8dd
8ee
8ff#
8dd
=40
2ee}
=41
{8.cc#
16ee
8cc#
8b
=42
8a
8b
8ee
8cc#
=43
4.b
8a
=44
2b}
=45
{4.b
8cc#
=46
2ee
=47
8.ff#
16aa
8ff#
8dd
=48
4.ee
8ff#
=49
4.dd
8cc#}
=50
{4.b
8cc#
=51
4.ee
8cc#
=52
8b
8cc#
4ee
=53
8.cc#
16ee
8cc#
8b
=54
8a
8f#
4a}
=55
{8r
8a
8f#
8a
=56
4.b
8cc#
=57
8a
8b
8g#
8f#
=58
8.e
16f#
8a
8b
=59
8f#
8e
16d
16e
16f#
16a
=60
4.e
8f#
=61
2e}
=62
{4.b
8cc#
=63
4.ee
8cc#
=64
8.b
16cc#
4ee
=65
8.cc#
16ee
8cc#
8b
=66
8a
8f#
4a}
=67
{8r
8aa
8ff#
8aa
=68
4bb
8ccc#
8bb
=69
8.aa
16bb
8gg#
8ff#
=70
8.ee
16ff#
8aa
8bb
=71
8ff#
8ee
16dd
16ee
16ff#
16aa
=72
2ee}
==
!!!AGN: Wuge, Huagu
!!!AMT: simple duple
!!!AIN: vox
!!!EED: Helmut Schaffrath
!!!EEV: 1.0
*-
!!!ONB: Tied note syntax fixed by Craig Sapp, 2004/05/03/
